x-pack/solutions/observability/plugins/observability_onboarding/public/icons/gcp.svg

<svg width="25" height="24" viewBox="0 0 25 24" fill="none" xmlns="http://www.w3.org/2000/svg">
<g id="gcp" clip-path="url(#clip0_2818_16257)">
<g id="Group">
<path id="Vector" d="M17.926 22.4867H13.6143C14.0095 22.4867 14.3545 22.2752 14.539 21.9617L20.3913 12.0002L16.696 5.70773L21.007 5.70848C21.376 5.70848 21.7345 5.89673 21.931 6.23348L24.7045 10.9517C25.072 11.5795 25.099 12.3767 24.7045 13.0495L19.7755 21.4382C19.5855 21.7588 19.315 22.0242 18.9908 22.2081C18.6667 22.392 18.3002 22.488 17.9275 22.4867H17.926ZM17.3935 20.3897C17.3935 20.6792 17.632 20.9147 17.926 20.9147C17.9956 20.9154 18.0646 20.9024 18.1291 20.8764C18.1936 20.8503 18.2524 20.8118 18.302 20.7631C18.3516 20.7143 18.3911 20.6562 18.4182 20.5921C18.4453 20.5281 18.4595 20.4593 18.46 20.3897C18.46 20.1002 18.2215 19.8647 17.9268 19.8647C17.8572 19.864 17.7882 19.8771 17.7237 19.9031C17.6592 19.9291 17.6004 19.9676 17.5508 20.0164C17.5012 20.0652 17.4617 20.1233 17.4346 20.1873C17.4075 20.2514 17.3932 20.3202 17.3928 20.3897H17.3935ZM22.5888 12.4547C22.8438 12.5995 23.17 12.5132 23.317 12.2627C23.352 12.2031 23.3748 12.1371 23.3839 12.0685C23.3931 12 23.3884 11.9303 23.3703 11.8636C23.3521 11.7968 23.3208 11.7344 23.2781 11.68C23.2355 11.6255 23.1824 11.5801 23.122 11.5465C22.9995 11.4767 22.8546 11.4577 22.7183 11.4936C22.582 11.5295 22.4652 11.6174 22.393 11.7385C22.358 11.7981 22.3352 11.8641 22.3261 11.9327C22.317 12.0012 22.3216 12.0709 22.3398 12.1376C22.3579 12.2044 22.3892 12.2668 22.4319 12.3212C22.4745 12.3757 22.5276 12.4211 22.588 12.4547H22.5888Z" fill="#DB4437"/>
<path id="Vector_2" d="M19.7751 2.56222L21.9298 6.23272C21.8348 6.07246 21.6995 5.9398 21.5375 5.84785C21.3754 5.7559 21.1921 5.70786 21.0058 5.70847H9.30132L5.60532 11.9995L3.44982 8.33047C3.35608 8.17152 3.30664 7.99037 3.30664 7.80584C3.30664 7.62132 3.35608 7.44016 3.44982 7.28122L6.22182 2.56222C6.41187 2.24165 6.68235 1.97629 7.00648 1.79238C7.33061 1.60848 7.69715 1.51242 8.06982 1.51372H17.9271C18.6636 1.51372 19.3798 1.89022 19.7751 2.56222ZM8.60307 3.61072C8.60307 3.32122 8.36457 3.08572 8.07057 3.08572C8.001 3.08502 7.93199 3.09806 7.86748 3.12409C7.80296 3.15012 7.74422 3.18862 7.69461 3.23739C7.64501 3.28616 7.60551 3.34424 7.57839 3.40831C7.55127 3.47237 7.53706 3.54115 7.53657 3.61072C7.53657 3.90022 7.77507 4.13572 8.06982 4.13572C8.13932 4.13631 8.20825 4.12319 8.27268 4.09712C8.33711 4.07105 8.39576 4.03253 8.44529 3.98377C8.49481 3.93501 8.53424 3.87696 8.56132 3.81295C8.58839 3.74894 8.60258 3.68022 8.60307 3.61072ZM18.1933 4.06522C18.2537 4.03157 18.3068 3.98618 18.3494 3.93173C18.3921 3.87728 18.4234 3.81486 18.4416 3.74813C18.4597 3.6814 18.4644 3.61172 18.4552 3.54317C18.4461 3.47463 18.4233 3.4086 18.3883 3.34897C18.3161 3.22813 18.1995 3.14037 18.0633 3.10448C17.9272 3.06859 17.7825 3.08743 17.6601 3.15697C17.5997 3.19061 17.5466 3.236 17.5039 3.29045C17.4613 3.3449 17.43 3.40732 17.4118 3.47405C17.3937 3.54078 17.389 3.61046 17.3982 3.67901C17.4073 3.74756 17.43 3.81358 17.4651 3.87322C17.5373 3.99405 17.6539 4.08181 17.79 4.1177C17.9262 4.15359 18.0709 4.13475 18.1933 4.06522Z" fill="#4285F4"/>
<path id="Vector_3" d="M1.29394 10.9509L3.45019 7.28119C3.25294 7.61794 3.26644 8.01619 3.45019 8.33044L9.30094 18.2927H16.6937L14.5382 21.9617C14.3537 22.2752 14.0087 22.4867 13.6134 22.4867H8.06944C7.69679 22.4879 7.33028 22.3918 7.00617 22.2079C6.68205 22.024 6.41155 21.7587 6.22144 21.4382L1.29394 13.0487C1.10661 12.7309 1.00781 12.3687 1.00781 11.9998C1.00781 11.6309 1.10661 11.2687 1.29394 10.9509ZM3.40894 11.5457C3.28648 11.4759 3.14154 11.457 3.00524 11.4929C2.86895 11.5287 2.75216 11.6166 2.67994 11.7377C2.64503 11.7973 2.62236 11.8634 2.61327 11.9319C2.60418 12.0004 2.60885 12.0701 2.62701 12.1368C2.64517 12.2035 2.67645 12.2659 2.71902 12.3203C2.76159 12.3748 2.8146 12.4202 2.87494 12.4539C3.12994 12.5987 3.45619 12.5124 3.60319 12.2619C3.63822 12.2023 3.66097 12.1363 3.67011 12.0677C3.67925 11.9992 3.6746 11.9295 3.65644 11.8628C3.63827 11.796 3.60695 11.7336 3.56432 11.6792C3.52169 11.6247 3.46861 11.5793 3.40819 11.5457H3.40894ZM7.80244 19.9352C7.74203 19.9688 7.68895 20.0142 7.64631 20.0687C7.60368 20.1231 7.57237 20.1855 7.5542 20.2523C7.53603 20.319 7.53139 20.3887 7.54053 20.4572C7.54967 20.5258 7.57242 20.5918 7.60744 20.6514C7.67965 20.7723 7.7963 20.86 7.93242 20.8959C8.06854 20.9318 8.2133 20.913 8.33569 20.8434C8.39611 20.8098 8.44919 20.7644 8.49182 20.71C8.53445 20.6555 8.56577 20.5931 8.58394 20.5264C8.6021 20.4596 8.60675 20.3899 8.59761 20.3214C8.58847 20.2528 8.56572 20.1868 8.53069 20.1272C8.45849 20.0064 8.34183 19.9186 8.20572 19.8827C8.0696 19.8468 7.92484 19.8657 7.80244 19.9352Z" fill="#F4B400"/>
<path id="Vector_4" opacity="0.1" fill-rule="evenodd" clip-rule="evenodd" d="M14.5392 21.9617L16.6955 18.2927H14.4687L13.6152 22.486C14.0097 22.486 14.3547 22.276 14.5392 21.9617ZM21.0072 5.70849H16.6955L17.8085 7.60374L21.9312 6.23274C21.8363 6.07234 21.7011 5.93953 21.539 5.84745C21.3769 5.75536 21.1936 5.70721 21.0072 5.70774" fill="black"/>
<g id="Group_2" opacity="0.1">
<mask id="mask0_2818_16257" style="mask-type:alpha" maskUnits="userSpaceOnUse" x="3" y="7" width="4" height="6">
<g id="logo_gcp_6a0c84d8-01e4-11ed-aaae-e91212edd8ba_b">
<path id="Vector_5" d="M3.30762 7.28198H6.71937V12.0002H3.30762V7.28198Z" fill="white"/>
</g>
</mask>
<g mask="url(#mask0_2818_16257)">
<path id="Vector_6" fill-rule="evenodd" clip-rule="evenodd" d="M3.45054 8.33048L5.60679 12.0002L6.72054 10.105L3.45054 7.28198C3.25329 7.61798 3.26679 8.01698 3.45054 8.33048Z" fill="black"/>
</g>
</g>
<path id="Vector_7" d="M9.30147 18.2927L5.60547 12.0002L9.30147 5.70773H16.695L20.391 12.0002L16.695 18.2927H9.30072H9.30147ZM16.1992 12.0002C16.1992 10.2625 14.7667 8.85473 12.9982 8.85473C11.2305 8.85473 9.79722 10.2625 9.79722 12.0002C9.79722 13.7372 11.2297 15.1457 12.9982 15.1457C14.766 15.1457 16.1992 13.7372 16.1992 12.0002Z" fill="#CCCCCC"/>
</g>
</g>
<defs>
<clipPath id="clip0_2818_16257">
<rect width="24" height="24" fill="white" transform="translate(0.998047 0.000183105)"/>
</clipPath>
</defs>
</svg>

<svg xmlns="http://www.w3.org/2000/svg" width="25" height="24" fill="none"><g clip-path="url(#a)"><path fill="#DB4437" d="M17.926 22.487h-4.312c.395 0 .74-.212.925-.525L20.391 12l-3.695-6.292h4.311c.369 0 .727.189.924.525l2.773 4.719a2.07 2.07 0 0 1 0 2.098l-4.928 8.388a2.14 2.14 0 0 1-1.849 1.049zm-.532-2.097c0 .29.238.525.532.525a.53.53 0 0 0 .534-.525.53.53 0 0 0-.533-.525.53.53 0 0 0-.534.525m5.195-7.935a.54.54 0 0 0 .728-.192.52.52 0 0 0-.195-.716.54.54 0 0 0-.729.191.52.52 0 0 0 .195.717"/><path fill="#4285F4" d="m19.775 2.562 2.155 3.67a1.07 1.07 0 0 0-.924-.524H9.3L5.605 12 3.45 8.33a1.03 1.03 0 0 1 0-1.049l2.772-4.719A2.14 2.14 0 0 1 8.07 1.514h9.857a2.14 2.14 0 0 1 1.848 1.048M8.603 3.611a.53.53 0 0 0-.532-.525.53.53 0 0 0-.534.525c0 .29.238.525.533.525a.53.53 0 0 0 .533-.525m9.59.454a.52.52 0 0 0 .195-.716.538.538 0 0 0-.976.125.52.52 0 0 0 .053.4.54.54 0 0 0 .728.191"/><path fill="#F4B400" d="M1.294 10.95 3.45 7.282a1.03 1.03 0 0 0 0 1.05l5.85 9.962h7.394l-2.156 3.669c-.184.313-.53.525-.925.525H8.07a2.14 2.14 0 0 1-1.848-1.049l-4.927-8.39a2.07 2.07 0 0 1 0-2.097m2.115.596a.54.54 0 0 0-.73.192.52.52 0 0 0 .196.716.54.54 0 0 0 .728-.192.52.52 0 0 0-.195-.716m4.393 8.39a.52.52 0 0 0-.195.715.538.538 0 0 0 .977-.125.52.52 0 0 0-.378-.643.54.54 0 0 0-.404.052"/><path fill="#000" fill-rule="evenodd" d="m14.54 21.962 2.156-3.67h-2.227l-.854 4.194c.395 0 .74-.21.924-.524m6.467-16.254h-4.312l1.113 1.896 4.123-1.371a1.07 1.07 0 0 0-.924-.525" clip-rule="evenodd" opacity=".1"/><g opacity=".1"><mask id="b" width="4" height="6" x="3" y="7" maskUnits="userSpaceOnUse" style="mask-type:alpha"><path fill="#fff" d="M3.308 7.282h3.411V12H3.308z"/></mask><g mask="url(#b)"><path fill="#000" fill-rule="evenodd" d="M3.45 8.33 5.608 12l1.114-1.895-3.27-2.823a1.03 1.03 0 0 0 0 1.048" clip-rule="evenodd"/></g></g><path fill="#CCC" d="M9.301 18.293 5.605 12l3.696-6.292h7.394L20.391 12l-3.696 6.293zM16.2 12c0-1.738-1.432-3.145-3.2-3.145S9.796 10.262 9.796 12s1.433 3.146 3.201 3.146S16.2 13.737 16.2 12"/></g><defs><clipPath id="a"><path fill="#fff" d="M.998 0h24v24h-24z"/></clipPath></defs></svg>
